X:1
T:O Little Town of Bethlehem
T:O Little Town of Bethlehem
T:Lewis Redner
C:Lewis Redner
%%score [ 1 2 3 4 ]
L:1/8
Q:1/4=92
M:4/4
K:G
V:1 treble nm="Soprano"
V:2 treble nm="Alto"
V:3 treble-8 nm="Tenor"
V:4 bass nm="Bass"
V:1
"^Not too fast" B2 | B2 B2 ^A2 B2 | d2 c2 E2 A2 | G2 (FG) A2 D2 | B6 B2 | B2 B2 e2 d2 | %6
w: 1.O|lit- tle town of|Beth- le- hem, How|still we _ see thee|lie! A-|bove thy deep and|
w: 2.For|Christ is born of|Ma- * ry, And|gath- ered _ all a-|bove, While|mor- tals sleep, the|
w: 3.O|ho- ly Child of|Beth- le- hem! De-|scend to _ us, we|pray; Cast|out our sin, and|
 d2 c2 E2 A2 | G2 (FG) B2 A2 | G6 B2 | B2 B2 A2 G2 | F4 F2 F2 | E2 F2 G2 A2 | B6 B2 | %13
w: dream- less sleep The|si- lent _ stars do|by; Yet|in thy dark street|shin- eth The|ev- er- last- ing|Light; The|
w: an- gels keep Their|watch of _ won- dering|love. O|morn- ing stars, to-|geth- er Pro-|claim the ho- ly|birth, And|
w: en- ter in, Be|born in _ us to-|day! We|hear the Christ- mas|an- gels The|great glad tid- ings|tell; O|
 B2 B2 ^A2 B2 | d2 c2 E2 e2 | d2 G2 B3 A | G6 |] %17
w: hopes and fears of|all the years Are|met in thee to-|night.|
w: prais- es sing to|God our King, And|peace to men on|earth!|
w: come to us, a-|bide with us, Our|Lord Im- man- u-|el!|
V:2
 D2 | D2 D2 ^C2 D2 | =F2 E2 C2 E2 | D2 D2 D2 D2 | D6 D2 | D2 G2 ^G2 G2 | A2 E2 C2 E2 | %7
w: 1.O|lit- tle town of|Beth- le- hem, How|still we see thee|lie! A-|bove thy deep and|dream- less sleep The|
w: 2.For|Christ is born of|Ma- * ry, And|gath- ered all a-|bove, While|mor- tals sleep, the|an- gels keep Their|
w: 3.O|ho- ly Child of|Beth- le- hem! De-|scend to us, we|pray; Cast|out our sin, and|en- ter in, Be|
 D2 D2 F2 F2 | G6 G2 | G2 G2 F2 E2 | ^D4 D2 D2 | E2 F2 G2 E2 | F6 G2 | D2 D2 ^C2 D2 | %14
w: si- lent stars do|by; Yet|in thy dark street|shin- eth The|ev- er- last- ing|Light; The|hopes and fears of|
w: watch of won- dering|love. O|morn- ing stars, to-|geth- er Pro-|claim the ho- ly|birth, And|prais- es sing to|
w: born in us to-|day! We|hear the Christ- mas|an- gels The|great glad tid- ings|tell; O|come to us, a-|
 E2 E2 C2 (EF) | G2 ^C2 D3 =C | B,6 |] %17
w: all the years Are _|met in thee to-|night.|
w: God our King, And _|peace to men on|earth!|
w: bide with us, Our _|Lord Im- man- u-|el!|
V:3
 G2 | G2 G2 G2 G2 | ^G2 A2 A2 c2 | B2 (AB) c2 c2 | B6 G2 | G2 B2 B2 e2 | e2 e2 e2 c2 | %7
w: 1.O|lit- tle town of|Beth- le- hem, How|still we _ see thee|lie! A-|bove thy deep and|dream- less sleep The|
w: 2.For|Christ is born of|Ma- * ry, And|gath- ered _ all a-|bove, While|mor- tals sleep, the|an- gels keep Their|
w: 3.O|ho- ly Child of|Beth- le- hem! De-|scend to _ us, we|pray; Cast|out our sin, and|en- ter in, Be|
 B2 (^AB) d2 c2 | B6 d2 | d2 B2 c2 ^c2 | ^d4 d2 B2 | E2 F2 G2 e2 | ^d6 =d2 | d2 B2 G2 G2 | %14
w: si- lent _ stars do|by; Yet|in thy dark street|shin- eth The|ev- er- last- ing|Light; The|hopes and fears of|
w: watch of _ won- dering|love. O|morn- ing stars, to-|geth- er Pro-|claim the ho- ly|birth, And|prais- es sing to|
w: born in _ us to-|day! We|hear the Christ- mas|an- gels The|great glad tid- ings|tell; O|come to us, a-|
 ^G2 A2 A2 c2 | B2 (AG) G3 F | G6 |] %17
w: all the years Are|met in _ thee to-|night.|
w: God our King, And|peace to _ men on|earth!|
w: bide with us, Our|Lord Im- * man- u-|el!|
V:4
 G,2 | G,2 G,2 G,2 G,2 | C,2 C,2 C,2 C,2 | D,2 D,2 D,2 D,2 | G,,6 G,2 | G,2 =F,2 E,2 E,2 | %6
w: 1.O|lit- tle town of|Beth- le- hem, How|still we see thee|lie! A-|bove thy deep and|
w: 2.For|Christ is born of|Ma- * ry, And|gath- ered all a-|bove, While|mor- tals sleep, the|
w: 3.O|ho- ly Child of|Beth- le- hem! De-|scend to us, we|pray; Cast|out our sin, and|
 A,2 A,2 A,,2 C,2 | D,3 D, D,2 D,2 | G,6 G,2 | G,2 G,2 A,2 ^A,2 | B,4 B,2 B,,2 | E,2 F,2 G,2 C2 | %12
w: dream- less sleep The|si- lent stars do|by; Yet|in thy dark street|shin- eth The|ev- er- last- ing|
w: an- gels keep Their|watch of won- dering|love. O|morn- ing stars, to-|geth- er Pro-|claim the ho- ly|
w: en- ter in, Be|born in us to-|day! We|hear the Christ- mas|an- gels The|great glad tid- ings|
 B,6 G,2 | G,2 G,2 G,2 G,2 | C,2 C,2 C,2 C,2 | D,2 E,2 D,3 D, | G,,6 |] %17
w: Light; The|hopes and fears of|all the years Are|met in thee to-|night.|
w: birth, And|prais- es sing to|God our King, And|peace to men on|earth!|
w: tell; O|come to us, a-|bide with us, Our|Lord Im- man- u-|el!|

